!!!COM: Palestrina, Giovanni Perluigi da
!!!OPR: Missa Ut re mi fa sol la
!!!OMD: Credo
!!!OTL: First Section
**kern	**kern	**kern	**kern	**kern	**kern
*Ibass	*Itenor	*Icalto	*Icalto	*Icant	*Icant
!Bassus	!Tenor	!Altus 2	!Altus 1	!Cantus 2	!Cantus 1
*clefF4	*clefGv2	*clefG2	*clefG2	*clefG2	*clefG2
*k[]	*k[]	*k[]	*k[]	*k[]	*k[]
*C:ion	*C:ion	*C:ion	*C:ion	*C:ion	*C:ion
*M4/2	*M4/2	*M4/2	*M4/2	*M4/2	*M4/2
=1	=1	=1	=1	=1	=1
0r	1G	1d	0r	0r	0r
.	2G	2d	.	.	.
.	2G	2d	.	.	.
=2	=2	=2	=2	=2	=2
0r	1c	1e	0r	0r	1g
.	1e	2c	.	.	2g
.	.	[2g	.	.	2g
=3	=3	=3	=3	=3	=3
0r	0d	2g]	0r	0r	2a
.	.	4f	.	.	2a
.	.	4e	.	.	.
.	.	1f#	.	.	1a
=4	=4	=4	=4	=4	=4
2r	2G	1g	2r	1g	2b
2C	2c	.	2e	.	2ee
2C	2c	1r	2e	2g	2ee
2C	2c	.	2e	2g	2ee
=5	=5	=5	=5	=5	=5
1F	1A	0r	1f	1a	1cc
2A	2c	.	2e	2a	2cc
2A	2c	.	2e	2a	2cc
=6	=6	=6	=6	=6	=6
1G	1B	0r	1g	1b	1dd
1E	1G	.	1g	1b	1ee
=7	=7	=7	=7	=7	=7
2.C	2.c	2.e	2.g	2.cc	2.ee
4C	4c	4e	4g	4cc	4ee
2F	2A	2c	2a	2cc	2ff
2F	2A	2c	2a	2cc	2ff
=8	=8	=8	=8	=8	=8
1D	1d	1f	1a	1dd	1ff
2G	2B	2d	2g	2dd	2gg
2G	2B	2d	2g	2dd	2gg
=9	=9	=9	=9	=9	=9
1C	0c	0c	2e	0ee	1gg
.	.	.	2.g	.	.
2.c	.	.	.	.	2r
.	.	.	4f	.	.
.	.	.	4e	.	[2gg
4B	.	.	4d	.	.
=10	=10	=10	=10	=10	=10
1A	0r	1.cc	1c	0r	2gg]
.	.	.	.	.	2ff
1G	.	.	1g	.	2ee
.	.	2b	.	.	2dd
=11	=11	=11	=11	=11	=11
2A	0r	2a	1e	0r	2cc
2E	.	2g	.	.	2.b
2.A	.	2f	1c	.	.
.	.	.	.	.	4a
.	.	[2e	.	.	[2a
4c	.	.	.	.	.
=12	=12	=12	=12	=12	=12
2B	0r	4e]	2d	0r	2a]
.	.	4d	.	.	.
2B	.	1d	2d	.	2g#
1A	.	.	1e	.	[1a
.	.	4c	.	.	.
.	.	4B	.	.	.
=13	=13	=13	=13	=13	=13
2r	1A	2c#	2r	1.ee	1a]
1A	.	1e	1a	.	.
.	1c#	.	.	.	1r
2A	.	2e	2a	2ee	.
=14	=14	=14	=14	=14	=14
2D	2d	2f#	2a	2dd	0r
2D	2d	2f#	2a	2dd	.
2G	2B	2g	2d	2dd	.
2G	2B	2g	2d	2dd	.
=15	=15	=15	=15	=15	=15
1C	1c	1e	1g	1cc	0r
1F	1A	1f	1a	1cc	.
=16	=16	=16	=16	=16	=16
0G	1.B	1d	2.g	0b	0r
.	.	.	8f	.	.
.	.	.	8e	.	.
.	.	[1g	1d	.	.
.	2G	.	.	.	.
=17	=17	=17	=17	=17	=17
0D	1A	2g]	0d	0a	0r
.	.	4f	.	.	.
.	.	4e	.	.	.
.	1d	1f#	.	.	.
=18	=18	=18	=18	=18	=18
0G	2B	2g	2d	0g	2r
.	2G	2b	2g	.	2dd
.	2G	2b	2g	.	2dd
.	2G	2b	2g	.	2dd
=19	=19	=19	=19	=19	=19
0r	2c	2.cc	2g	0r	2.ee
.	2c	.	2e	.	.
.	.	4b	.	.	4dd
.	2F	2a	2f	.	2cc
.	2G	2g	2d	.	2b
=20	=20	=20	=20	=20	=20
0r	2A	4f	2c	0r	2a
.	.	4e	.	.	.
.	2A	4e	2c	.	1cc
.	.	8d	.	.	.
.	.	8c	.	.	.
.	1G	2d	1g	.	.
.	.	2d	.	.	2b
=21	=21	=21	=21	=21	=21
1C	2r	1e	2r	1.g	1cc
.	1c	.	1e	.	.
1G	.	1r	.	.	1r
.	2B	.	2d	2g	.
=22	=22	=22	=22	=22	=22
2F	2c	0r	2f	2a	0r
2D	2d	.	2f	2a	.
1A	1c	.	1e	1a	.
=23	=23	=23	=23	=23	=23
2G	1d	2r	1g	2b	2r
1G	.	1g	.	1b	1dd
.	1r	.	1r	.	.
2G	.	2g	.	2b	2dd
=24	=24	=24	=24	=24	=24
1c	0r	1g	0r	1cc	1ee
2A	.	2a	.	2cc	2ee
2A	.	2e	.	2cc	[2cc
=25	=25	=25	=25	=25	=25
1G	0r	1g	0r	1dd	2cc]
.	.	.	.	.	4b
.	.	.	.	.	4a
1G	.	1g	.	1dd	2b
.	.	.	.	.	2b
=26	=26	=26	=26	=26	=26
0C	1r	1.g	1r	0ee	1cc
.	1c	.	2r	.	2r
.	.	2g	2cc	.	2ee
=27	=27	=27	=27	=27	=27
0r	2c	2g	2cc	0r	2ee
.	2c	2g	2cc	.	2ee
.	1G	1g	1b	.	1dd
=28	=28	=28	=28	=28	=28
2r	2c	2e	2g	1ee	2cc
2c	2e	2c	2g	.	2cc
2c	2e	2.e	2g	2ee	2cc
2c	2c	.	2g	2ee	2cc
.	.	4f	.	.	.
=29	=29	=29	=29	=29	=29
2G	2d	2g	2g	2dd	2b
2G	2d	2G	2g	2dd	2b
1D	2d	1A	1f	1dd	1a
.	[2A	.	.	.	.
=30	=30	=30	=30	=30	=30
1A	2A]	1a	1.e	1cc	2r
.	2.c	.	.	.	1ee
1c	.	1g	.	1cc	.
.	4d	.	.	.	.
.	4e	.	2c	.	2ee
.	4f	.	.	.	.
=31	=31	=31	=31	=31	=31
1G	2g	1g	2d	1b	1dd
.	1G	.	1B	.	.
2E	.	2g	.	2b	2ee
2E	2G	2g	[2e	2b	2ee
=32	=32	=32	=32	=32	=32
1A	1c	1e	2e]	1a	1.cc
.	.	.	2.A	.	.
1F	2A	1f	.	1a	.
.	.	.	4G	.	.
.	2F	.	4A	.	2dd
.	.	.	4B	.	.
=33	=33	=33	=33	=33	=33
1C	0G	1e	2c	0g	2ee
.	.	.	2.g	.	1cc
1G	.	1d	.	.	.
.	.	.	4f	.	.
.	.	.	2d	.	2b
=34	=34	=34	=34	=34	=34
0C	1G	1c	1e	0g	1cc
.	2.c	2.e	1r	.	2.g
.	4c	4e	.	.	4g
=35	=35	=35	=35	=35	=35
0r	2A	2e	2.c	0r	2a
.	2A	2f#	.	.	2a
.	.	.	4c	.	.
.	1G	1g	2d	.	1b
.	.	.	2d	.	.
=36	=36	=36	=36	=36	=36
1r	1c	1g	2e	1r	1cc
.	.	.	2e	.	.
2.c	2.e	1r	2r	2.g	2.cc
.	.	.	[2e	.	.
4c	4e	.	.	4g	4cc
=37	=37	=37	=37	=37	=37
2A	2c	0r	2e]	2a	2cc
2A	2c	.	2e	2a	2cc
1G	2B	.	2g	1b	1dd
.	2d	.	2g	.	.
=38	=38	=38	=38	=38	=38
2C	1c	0r	2g	1cc	1ee
1c	.	.	2g	.	.
.	1G	.	1g	1dd	1dd
2B	.	.	.	.	.
=39	=39	=39	=39	=39	=39
2c	2r	2r	1g	1ee	2cc
2C	1g	1cc	.	.	1ee
1G	.	.	1r	1r	.
.	2g	2b	.	.	2dd
=40	=40	=40	=40	=40	=40
2A	2e	2a	0r	0r	2cc
2F	2f	2a	.	.	2cc
1G	1d	2g	.	.	1b
.	.	[2g	.	.	.
=41	=41	=41	=41	=41	=41
2D	2d	2g]	0r	0r	2a
2D	2d	2f#	.	.	2a
1G	1d	1g	.	.	1g
=42	=42	=42	=42	=42	=42
1C	2r	0r	1g	1ee	1cc
.	2c	.	.	.	.
2G	2c	.	2g	2dd	2dd
2G	2B	.	2g	2dd	2dd
=43	=43	=43	=43	=43	=43
1C	1c	0r	1g	1cc	1ee
1r	2G	.	2g	2b	2dd
.	2G	.	2g	2b	2dd
=44	=44	=44	=44	=44	=44
1r	1d	1r	1f#	1a	[0dd
1G	1B	1d	2r	1g	.
.	.	.	2g	.	.
=45	=45	=45	=45	=45	=45
2D	2A	2d	2g	2a	0dd]
2D	2A	2d	2f#	2a	.
1G	2G	1d	1g	1b	.
.	2B	.	.	.	.
=46	=46	=46	=46	=46	=46
2F	2A	2f	2a	2cc	0r
2E	1c	2g	2g	2cc	.
1D	.	2a	1f	1dd	.
.	2B	2d	.	.	.
=47	=47	=47	=47	=47	=47
0C	1c	1g	1e	1ee	1r
.	1c	1g	2r	1r	1ee
.	.	.	[2cc	.	.
=48	=48	=48	=48	=48	=48
0r	1G	1g	2cc]	0r	1dd
.	.	.	1b	.	.
.	2A	2e	.	.	1cc
.	2F	2f	[2a	.	.
=49	=49	=49	=49	=49	=49
0r	1G	0d	2a]	0r	1b
.	.	.	1g	.	.
.	1d	.	.	.	1a
.	.	.	2f#	.	.
=50	=50	=50	=50	=50	=50
1r	1G	2d	1g	1r	1g
.	.	2g	.	.	.
1C	1G	2e	2r	1ee	1cc
.	.	2c	2g	.	.
=51	=51	=51	=51	=51	=51
1G	1B	2d	1g	1dd	2b
.	.	1g	.	.	2b
1C	1c	.	1e	1cc	1ee
.	.	[2G	.	.	.
=52	=52	=52	=52	=52	=52
1G	2d	4G]	2g	1b	0dd
.	.	4A	.	.	.
.	2G	4B	2.g	.	.
.	.	4c	.	.	.
1D	1A	1d	.	1a	.
.	.	.	8f	.	.
.	.	.	8e	.	.
.	.	.	2f#	.	.
=53	=53	=53	=53	=53	=53
0G	0B	0d	0g	0g	0dd
=54	=54	=54	=54	=54	=54
0G	0r	0d	0r	0g	0b
=55	=55	=55	=55	=55	=55
1c	0r	1e	0r	1g	1cc
1e	.	2c	.	1g	1cc
.	.	[2g	.	.	.
=56	=56	=56	=56	=56	=56
1d	0r	2g]	0r	1a	1dd
.	.	4f	.	.	.
.	.	4e	.	.	.
1d	.	2f#	.	1a	1dd
.	.	2f#	.	.	.
=57	=57	=57	=57	=57	=57
0G	1r	1g	1r	1b	0dd
.	1G	1g	1d	1b	.
=58	=58	=58	=58	=58	=58
0r	1c	1g	2e	1cc	0r
.	.	.	2e	.	.
.	1e	1g	2c	1cc	.
.	.	.	[2g	.	.
=59	=59	=59	=59	=59	=59
0r	1d	1a	2g]	1dd	0r
.	.	.	4f	.	.
.	.	.	4e	.	.
.	1d	2a	1f#	1dd	.
.	.	2b	.	.	.
=60	=60	=60	=60	=60	=60
2r	0c	2cc	2g	1ee	2r
1C	.	1cc	1g	.	1ee
.	.	.	.	1r	.
2C	.	2cc	2g	.	2ee
=61	=61	=61	=61	=61	=61
1G	0r	1b	1g	0r	1dd
1G	.	1b	1g	.	1dd
=62	=62	=62	=62	=62	=62
1A	0r	1a	1e	0r	1cc
1F	.	1a	1f	.	1cc
=63	=63	=63	=63	=63	=63
0G	0r	0g	0d	0r	0b
=64	=64	=64	=64	=64	=64
0C	0c	1g	0e	0ee	0cc
.	.	[1g	.	.	.
=65	=65	=65	=65	=65	=65
0G	1d	2g]	0g	0dd	0b
.	.	4f	.	.	.
.	.	4e	.	.	.
.	1G	1d	.	.	.
=66	=66	=66	=66	=66	=66
0C	2r	2.g	2.e	0cc	0ee
.	1G	.	.	.	.
.	.	4f	4d	.	.
.	.	2e	1c	.	.
.	2A	2c	.	.	.
=67	=67	=67	=67	=67	=67
0G	2B	4d	2r	0b	0dd
.	.	4c	.	.	.
.	2.G	4B	1d	.	.
.	.	4A	.	.	.
.	.	2B	.	.	.
.	4A	.	.	.	.
.	4B	2G	[2g	.	.
.	4c	.	.	.	.
=68	=68	=68	=68	=68	=68
0D	1d	2A	2g]	0a	0dd
.	.	2.d	4f	.	.
.	.	.	4e	.	.
.	2r	.	1f#	.	.
.	.	4c	.	.	.
.	[2d	2A	.	.	.
=69	=69	=69	=69	=69	=69
0G	4d]	2B	1g	[0g	2.b
.	4c	.	.	.	.
.	4B	2G	.	.	.
.	4A	.	.	.	4cc
.	1B	2.g	1d	.	1dd
.	.	4f	.	.	.
=70	=70	=70	=70	=70	=70
0C	2.c	1e	1c	0g]	0ee
.	8B	.	.	.	.
.	8A	.	.	.	.
.	1G	1c	1cc	.	.
=71	=71	=71	=71	=71	=71
[0G	[0G	[0d	[0b	[0g	[0dd
=72	=72	=72	=72	=72	=72
0G]	0G]	0d]	0b]	0g]	0dd]
*-	*-	*-	*-	*-	*-
!!!CDT: 1525/^1526/-1594/2/2
!!!OCY: Italia
!!!AGN: Mass (Tenor)
!!!AST: renaissance, vocal
!!!ASW: Antiphon
!!!PWK: Masses, Book 3
!!!RNB: Cadence finals: G
!!!YOR: Le Opere Complete, v. 6, p. 216
!!!YOO: Rome, Italy: Fratelli Scalera
!!!END: 1992//
!!!EED: John Miller
!!!YEC: Copyright 2000, John Miller
!!!YEN: United States of America
!!!YEM: Rights to all derivative electronic formats reserved.
!!!YEM: Refer to licensing agreement for further details.
!!!YEM: This file must be accompanied by the licensing agreement.
!!!YEM: A copy of the licensing agreement may be found at http://www.music-cog.ohio-state.edu/HumdrumDatabases/Palestrina/license.txt
!!!EMD: converted to Humdrum by Bret Aarden
